X:1
T:Title
%%score ( 1 2 ) { 3 | 4 }
L:1/8
Q:1/4=125
M:3/4
K:F
V:1 treble nm="Grand Piano, Soprano"
V:2 treble 
V:3 treble nm="Choir Pad, Aquilla, 87.87"
V:4 bass 
V:1
 [FA]4 [FG]2 | [FB]4 [FA]2 | [Fd]4 [Fc]2 | .c2 z2 z2 | [EG]4 [CE]2 | [CF]4 [CG]2 | [FA]4 [F=B]2 | %7
w: By~Niccolò~Antonio~Zingarelli~(1752\-1837) *|||||||
 [Ec]4 z2 | [CA]4 [CG]2 | [FB]4 [EA]2 | d4 z2 | .c2 z2 z2 | [Af]2 [FA]2 [GA]2 | A4 z2 | F4 z2 | %15
w: ||||||||
 [CF]6- | [CF]2 z2 z2 |] %17
w: ||
V:2
 x6 | x6 | x6 | G-[GB] [FA]2 z2 | x6 | x6 | x6 | x6 | x6 | x6 | D3 E [Fc]2 | E-[EB] [FA]2 z2 | x6 | %13
 F3- [Fc] [FB][DG] | C3- [CG] [CE]2 | x6 | x6 |] %17
V:3
 C4 B,2 | D4 C2 | B,4 A,2 | C2 C2 z2 | C4 B,2 | A,4 C2 | C4 G,2 | G,4 z2 | F,4 E,2 | D,4 C,2 | %10
 C,2 B,2 A,2 | G,2 F,2 z2 | C4 ^C2 | D4 DB, | A,3 B, G,2 | A,6- | A,2 z2 z2 |] %17
V:4
 F,4 F,2 | F,4 F,2 | F,4 F,2 | E,2 F,2 z2 | C,4 C,2 | C,4 E,2 | F,4 D,2 | C,4 z2 | z6 | z6 | z6 | %11
 z6 | F,4 E,2 | D,4 B,,2 | C,4 C,2 | [F,,F,]6- | [F,,F,]2 z2 z2 |] %17

